X:38
T:score130
L:1/8
Q:1/4=96
M:2/4
I:linebreak $
K:G
 !>!.g(g/f/ .g).g | .e.d (c.e) | !>!.d(d/^c/ .d).d | .B.A .G(G/B/ | .A)(A/d/ .G)(G/d/ |$ %5
 .F)(F/d/ .A)(A/d/ | .B)(B/d/ .A)(A/d/ | !>!.G).E !>!.G z |] %8
